X:1
T:Neumark, 98.98.88
T:Georg Neumark, 1640
T:Neumark, 98.98.88
T:Public Domain
C:Georg Neumark, 1640
Z:Public Domain
%%score ( 1 2 ) ( 3 4 )
L:1/8
M:3/4
K:Bb
V:1 treble 
V:2 treble 
V:3 bass 
V:4 bass 
V:1
 [B,D]2 [DG]2 [DA]2 | [DB]4 [DA]2 | [EG]4 [EA]2 | [D_G]2 D4 | [DF]2 [DF]2 [CE]2 | [A,D]4 [DG]2 | %6
 [EG]4 [D_G]2 | [DG]6 | [B,D]2 [DG]2 [DA]2 | [DB]4 [DA]2 | [EG]4 [EA]2 | [D_G]2 D4 | %12
 [DF]2 [DF]2 [CE]2 | [A,D]4 [DG]2 | [EG]4 [D_G]2 | [DG]6 | [DA]2 [DB]2 [Fc]2 | [Fd]4 [Fd]2 | %18
 [Gc]4 [Fc]2 | [DB]6 | [FB]2 [FA]2 [DG]2 | [D_G]4 [B,=G]2 | [EG]4 [D_G]2 | [DG]6 |] %24
V:2
 x6 | x6 | x6 | x2 D4 | x6 | x6 | x6 | x6 | x6 | x6 | x6 | x2 D4 | x6 | x6 | x6 | x6 | x6 | x6 | %18
 x6 | x6 | x6 | x6 | x6 | x6 |] %24
V:3
 G,2 [=G,B,]2 [_G,A,]2 | G,4 [F,A,]2 | [E,B,]4 [C,C]2 | [D,A,]2 [D,_G,]4 | %4
 [B,,F,]2 [B,,B,]2 [C,G,]2 | [D,F,]4 [B,,G,]2 | [C,C]4 [D,A,]2 | [G,,B,]6 | G,2 [=G,B,]2 [_G,A,]2 | %9
 G,4 [F,A,]2 | [E,B,]4 [C,C]2 | [D,A,]2 [D,_G,]4 | [B,,F,]2 [B,,B,]2 [C,G,]2 | [D,_G,]4 [B,,=G,]2 | %14
 [C,C]4 [D,A,]2 | [G,,B,]6 | [D,_G,]2 =G,2 [F,A,]2 | [B,,B,]4 [D,B,]2 | [E,B,]4 [F,A,]2 | %19
 [B,,B,]6 | [B,D]2 [F,C]2 [G,B,]2 | [D,A,]4 [E,G,]2 | [C,A,]4 [D,A,]2 | [G,,B,]6 |] %24
V:4
 _G,2 x4 | G,4 x2 | x6 | x6 | x6 | x6 | x6 | x6 | _G,2 x4 | G,4 x2 | x6 | x6 | x6 | x6 | x6 | x6 | %16
 x6 | x6 | x6 | x6 | x6 | x6 | x6 | x6 |] %24

